!!!COM: Anon.
!!!OTL: Pater Noster Commiserans
!!!SCA: Folio 278'-280'
!!!YOR: from 'Thirty-Five Conductus for Two and Three Voices', pp.64-69
!!!YOR: edited by Janet Knapp, Collegium Musicum No. 6, Yale University (1965)
!!!YOR: from the School of Notre Dame; circa 1170-1240
!!!YOO: Yale University
!!!YOY: 1965
**kern	**kern
*M6/8	*M6/8
=1	=1
4.D	4.d
4.r	4.r
=2	=2
4.F	4.c
4.r	4.r
=3	=3
4E	4B
8D	8A
4.E	4.G
=4	=4
4.F	4.F
4.r	4F
.	8E
=5	=5
4.G	4.C
4.r	4.r
=6	=6
4.F	4.D
4.r	4.r
=7	=7
4E	4E
8D	8G
4.E	4A
.	8G
=8	=8
4.C	4.F
4.D	4.E
=9	=9
4.F	4.D
4F	4.C
8E	.
=10	=10
4.D	4.A
4.r	4A
.	8B
=11	=11
4.F	4.c
4.E	8B
.	8A
.	8G
=12	=12
4.F	4.F
4G	4E
8A	8D
=13	=13
4.G	4.C
8F	4.D
8E	.
8D	.
=14	=14
2.C	2.E
=15	=15
4.D	4.D
4.r	4.r
=16	=16
4.F	4.F
4.E	4.G
=17	=17
4.F	4A
.	8A
4.D	4.B
=18	=18
2.C	2.c
=19	=19
4.G	8B
.	8A
.	8G
8F	4.A
8E	.
8D	.
=20	=20
2.C	2.c
=21	=21
4.D	4.A
4.r	4.r
=22	=22
4.F	4.A
4.G	4.G
=23	=23
8B-	4F
8A	.
8G	8E
4.F	4.C
=24	=24
4.E	4.E
4.r	4.r
=25	=25
4.D	4.F
4C	4.E
8D	.
=26	=26
4.F	4.D
4G	4C
8F	8D
=27	=27
4.E	4.E
4.r	4.r
=28	=28
4.E	4.G
4D	4A
8E	8G
=29	=29
4.F	4.F
4F	4A
8E	8G
=30	=30
4.D	4.F
4.C	4.E
=31	=31
4.D	4.D
4.r	4.r
=32	=32
4.F	4.F
4.r	4.r
=33	=33
4.G	4.E
4.r	4.r
=34	=34
4.A	4.D
4.r	4.r
=35	=35
4c	4F
8d	8G
4c	4.A
8A	.
=36	=36
4.F	4.r
4.r	4B-
.	8A
=37	=37
4G	4G
8E	8F
4C	4G
8D	8A
=38	=38
4F	4F
8F	8F
4.E	4.G
=39	=39
4.D	4.A
4.r	4.r
=40	=40
4.F	4.c
4.G	8B-
.	8A
.	8G
=41	=41
4A	4.F
8G	.
8F	4.G
8E	.
8D	.
=42	=42
4.C	4A
.	8G
4.D	8F
.	8E
.	8D
=43	=43
2.E	2.C
=44	=44
4.D	4.D
4.r	4.r
=45	=45
4.B-	4.F
4.r	4F
.	8G
=46	=46
4A	4E
8G	8D
4.B-	4.C
=47	=47
4.A	4.D
4.r	4.r
=48	=48
4.B-	4.F
4.A	4.r
=49	=49
4G	4G
8F	8A
4.G	4.G
=50	=50
4.F	4.A
4.r	4.r
=51	=51
4c	4c
8d	8A
4c	4F
8B-	8G
=52	=52
4A	4A
8G	8B-
4.F	4.c
=53	=53
4.d	4.G
4.r	4.r
=54	=54
4c	4F
8A	8A
4F	4c
8G	8B-
=55	=55
4A	4A
8G	8B-
4.F	4c
.	8B-
=56	=56
4.E	4A
.	8G
4.D	4.F
=57	=57
2.C	2.E
=58	=58
4.D	4.D
4.r	4.r
=59	=59
4.F	4.c
4F	4c
8G	8B-
=60	=60
2.A	4.A
.	4A
.	8G
=61	=61
8B-	8F
8A	8G
8G	8A
4.F	4A
.	8G
=62	=62
4.A	4F
.	8E
4A	4D
8G	8r
=63	=63
4E	4B-
8D	8A
4.F	4B-
.	8G
=64	=64
4.E	4.A
4.r	4.r
=65	=65
4.F	4.A
4.r	4.r
=66	=66
4.E	4.A
4.r	4.r
=67	=67
4F	4B-
8D	8A
4.E	4.G
=68	=68
4.F	4.F
4.r	4.r
=69	=69
4.E	4.G
4.r	4.r
=70	=70
4.D	4.A
4.r	4G
.	8F
=71	=71
4E	4A
8C	8G
4.D	4.F
=72	=72
4.E	4.E
4.r	4.r
=73	=73
4.G	4.C
4G	4C
8A	8D
=74	=74
4C	4F
8D	8G
4.F	4B-
.	8G
=75	=75
4.E	8A
.	8A
.	8G
4.D	4.F
=76	=76
2.C	2.E
=77	=77
4.D	4.D
4.r	4.r
=78	=78
4F	4F
8E	8G
4D	4A
8E	8B-
=79	=79
4.F	4c
.	8d
4.G	4c
.	8B-
=80	=80
4.A	4.A
4.r	4.r
=81	=81
4c	4c
8d	8A
8c	4.F
8B-	.
8A	.
=82	=82
4.G	4.G
4.r	4.F
=83	=83
4.B-	4.G
4.c	4A
.	8F
=84	=84
4.A	4.D
4.r	4.r
=85	=85
4c	4F
8d	8D
16c	4F
16B-	.
8A	.
8G	8G
=86	=86
4.F	4A
.	8B-
4F	8c
.	8c
8G	8B-
=87	=87
4.A	4.A
4A	4A
8G	8G
=88	=88
8F	4A
8E	.
8D	8G
4.C	4.F
=89	=89
4.E	4.E
4.r	4.r
=90	=90
4F	4F
8E	8G
4D	4A
8C	8B
=91	=91
4.C	4.c
4.D	4.A
=92	=92
4.F	4.A
4F	4A
8E	8G
=93	=93
4.D	4.F
4.C	4.E
=94	=94
4.D	4.D
4.r	4.r
=95	=95
4.d	4.D
4.r	4.r
=96	=96
4.c	4.F
4.r	4.r
=97	=97
4B	4E
8G	8D
4.F	4.F
=98	=98
4.A	4.E
4.r	4.r
=99	=99
8B-	8F
8A	8E
8G	8D
4.F	4.C
=100	=100
4.A	4.D
4.D	4.A
=101	=101
4.F	4.A
4G	4.G
8F	.
=102	=102
4E	4A
8D	8G
4.C	4.F
=103	=103
4.E	4.E
4.r	4.r
=104	=104
4C	4c
8D	8B
4E	4A
8D	8G
=105	=105
4.F	4.F
4.G	4.G
=106	=106
4.C	4.G
4.r	4.r
=107	=107
4G	4d
8A	8c
4B-	4B-
8A	8A
=108	=108
4.c	4.G
4.d	4.A
=109	=109
4.D	4.A
4.r	4.r
=110	=110
4F	4c
8G	8c
4A	4B
8G	8B
=111	=111
4F	4A
8E	8A
4G	4G
8F	8G
=112	=112
4E	4F
8D	8F
8F	8E
8E	8D
8D	8E
=113	=113
4.D	4.F
4.r	4.r
=114	=114
4.C	4.G
4.r	4.r
=115	=115
4.E	4.A
4.G	4.G
=116	=116
4A	8F
.	8E
8G	8D
8F	4.F
8E	.
8D	.
=117	=117
4.C	4.E
4.C	4.E
=118	=118
4.D	4.D
4.r	4.r
=119	=119
8F	8c
4G	4B-
8A	8A
4r	4B-
=120	=120
8G	8c
4F	4B-
8E	8A
4r	4r
=121	=121
8F	8B-
4D	4A
4.E	8B-
.	4G
=122	=122
4.F	8F
.	4r
4.r	8F
.	4G
=123	=123
8G	8E
4B-	4D
8A	8E
4r	4F
=124	=124
8G	8D
4B-	4C
8A	8D
4r	4r
=125	=125
8F	4.B-
4F	.
8G	4.A
4G	.
=126	=126
8F	4.G
4D	.
8F	8F
4r	4r
=127	=127
8G	4.G
4B-	.
8A	8A
4r	4r
=128	=128
8G	4.G
4c	.
8A	8A
4r	4r
=129	=129
8F	4.c
4F	.
8G	4.B-
4G	.
=130	=130
8G	4.B-
4D	.
4.E	4.A
=131	=131
8F	8G
4D	4F
8C	8G
4r	4r
=132	=132
8E	8B-
4F	4A
4.G	8G
.	4A
=133	=133
8E	8B-
4F	4A
8G	8G
4r	4r
=134	=134
8F	8F
4B-	4E
4.A	8D
.	4E
=135	=135
8G	8F
4B-	8E
.	8D
8c	8C
4r	4r
=136	=136
8A	8D
4F	4F
8G	8E
4A	4D
=137	=137
8G	8C
4F	4D
8E	8E
4r	4r
=138	=138
8C	8G
4D	4F
4.E	8E
.	4F
=139	=139
8C	8G
4D	4F
8E	8E
4r	4r
=140	=140
8D	8F
4G	4D
4.F	4.C
=141	=141
8E	8D
4G	4E
8A	8D
4r	4r
=142	=142
8G	8E
4F	4F
8E	8E
4G	4C
=143	=143
4.F	4.D
8E	8E
4D	4F
=144	=144
4.C	4.G
4.r	8G
.	4A
=145	=145
[2.C	16c
.	16B-
.	16A
.	16G
.	16F
.	16E
.	4.D
=146	=146
4.C]	4.E
8D;	8D;
4r	4r
=147	=147
4.D	4.d
4.r	4.r
=148	=148
4.F	8c
.	8B-
.	8A
4E	4.G
8F	.
=149	=149
4G	4.G
8E	.
4.C	4.A
=150	=150
4.C	4.G
4.r	4.r
=151	=151
4.A	4.D
4.G	4.r
=152	=152
4F	4F
8E	8E
4.F	4.D
=153	=153
4.G	4.C
4.r	4.r
=154	=154
4.A	4.E
4.G	4.G
=155	=155
8F	4A
8E	.
8D	8G
4.E	4.E
=156	=156
4F	4D
8G	8C
8F	4.F
8E	.
8D	.
=157	=157
2.C	2.G
=158	=158
4.F	4.C
4F	4.r
8G	.
=159	=159
4.C	4.F
4.D	4E
.	8D
=160	=160
4.F	4.D
4G	4.C
8F	.
=161	=161
4E	4.E
8D	.
4.D	4.F
=162	=162
2.C	2.E
=163	=163
4.D	4.D
4.r	4.r
=164	=164
4.F	4.F
4.r	4G
.	8B-
=165	=165
4.D	4.A
4E	4.r
8D	.
=166	=166
4.C	8c
.	8B-
.	8A
4E	4.G
8F	.
=167	=167
4.G	4.G
4E	4.r
8C	.
=168	=168
4F	4F
8D	8G
4.E	4B-
.	8G
=169	=169
4.D	4.A
4.r	4.r
=170	=170
4.G	4.D
4G	4D
8A	8E
=171	=171
2.C	2.G
=172	=172
4.D	4.F
4.E	4.E
=173	=173
4F	4D
8G	8C
4E	4.E
8C	.
=174	=174
2.D	2.F
=175	=175
4.C	4.G
4.r	4.r
=176	=176
8B-	8F
8A	8E
8G	8D
4.F	4.C
=177	=177
4.E	4.E
4E	4E
8D	8D
=178	=178
4.D	4.F
4D	4F
8C	8E
=179	=179
4.D	4.D
4.r	4.r
=180	=180
4.C	4.G
4.D	4.F
=181	=181
4.E	4.E
4.r	4.r
=182	=182
4C	4.G
8D	.
4E	4.F
8D	.
=183	=183
4F	4.G
8E	.
4D	4.F
8E	.
=184	=184
4.C	4.G
4.D	4.F
=185	=185
4.E	4.E
4.r	4.r
=186	=186
4C	4.G
8D	.
4E	4.F
8F	.
=187	=187
4G	4.G
8F	.
4.D	4.F
=188	=188
2.C	2.E
=189	=189
4.D	4.D
4.r	4.r
=190	=190
4.F	4.F
4.E	4.G
=191	=191
4D	4A
8C	8G
4.D	4.F
=192	=192
4.E	4.E
4.r	4.r
=193	=193
4.F	4.D
4.G	4E
.	8D
=194	=194
4.F	4.C
4.r	4.r
=195	=195
4.B-	4.F
4.A	4G
.	8A
=196	=196
4G	4.C
8F	.
4E	4.D
8D	.
=197	=197
4.F	2.C
4F	.
8G	.
=198	=198
4F	4.F
8D	.
4.C	4.E
=199	=199
4.D	4.D
4.r	4.r
=200	=200
4.D	4.A
4.r	4.r
=201	=201
4F	4B-
8E	8G
4.F	4.A
=202	=202
4.G	4.G
4.r	4.r
=203	=203
4.A	4.A
4.B-	4.G
=204	=204
2.c	4.F
.	4F
.	8E
=205	=205
16d	4.D
16c	.
16B-	.
16A	.
8G	.
8F	4E
8E	.
8D	8F
=206	=206
4.C	4.G
4.r	4.r
=207	=207
4.F	4.F
4.E	4.G
=208	=208
4.D	4.A
4.r	4.r
=209	=209
4.G	4.d
4.A	4.c
=210	=210
8G	8B-
8G	8B-
8A	8c
4.F	4.A
=211	=211
4.G	4.G
4.r	4.r
=212	=212
4.c	4F
.	8G
4.B-	4B-
.	8A
=213	=213
8c	4G
8B-	.
8A	8A
4.G	4.F
=214	=214
4.F	4.c
4.G	4.B-
=215	=215
4.A	4.A
4.r	4.r
=216	=216
4.G	4.d
4.F	4.c
=217	=217
4.B-	4A
.	8F
4A	4.G
8G	.
=218	=218
8F	8A
8E	8G
8D	8F
4.C	4.E
=219	=219
4.D	4.D
4.r	4.r
=220	=220
4F	4F
8A	8E
4G	4C
8E	8E
=221	=221
4C	4G
8D	8G
4.F	4A
.	8B-
=222	=222
4.E	4A
.	8G
4.D	4F
.	8G
=223	=223
4.C	4.E
4D	4D
8r	8r
=224	=224
4F	4F
8E	8A
4C	4G
8E	8E
=225	=225
4G	4C
8G	8D
4A	4.F
8B-	.
=226	=226
4A	4.E
8G	.
4F	4.D
8G	.
=227	=227
4.E	4.C
4D	4D
8r	8r
=228	=228
4.F	4.F
4.r	4G
.	8B-
=229	=229
4.D	4.A
4E	4.r
8D	.
=230	=230
4.C	8c
.	8B-
.	8A
4E	4.G
8F	.
=231	=231
4.G	4.G
4E	4.r
8C	.
=232	=232
4F	4F
8D	8G
4.E	4B-
.	8G
=233	=233
4.D	4.A
4.r	4.r
=234	=234
4.G	4C
.	8D
4.F	4E
.	8D
=235	=235
4.G	4F
.	8E
4.F	4D
.	8E
=236	=236
4.G	4.C
4.F	4.D
=237	=237
4.E	4.E
4.r	4.r
=238	=238
4C	4.G
8D	.
4E	4.F
8F	.
=239	=239
4G	4.G
8F	.
4.D	4.F
=240	=240
4.C	4.G
4.r	4.r
=241	=241
4.c	4F
.	8G
4.B-	4B-
.	8A
=242	=242
8c	4G
8B-	.
8A	8A
4.G	4.F
=243	=243
4.F	4.c
4.G	4.B-
=244	=244
4.A	4.A
4.r	4.r
=245	=245
4F	4F
8E	8G
4D	4A
8E	8G
=246	=246
4F	8F
.	8E
8G	8D
4F	4C
8r	8r
=247	=247
4F	4F
8E	8E
4.D	4.F
=248	=248
4.C	4.G
4.r	4G
.	8A
=249	=249
[2.C	16c
.	16B-
.	16A
.	16G
.	16F
.	16E
.	4.D
=250	=250
2.C]	2.E
=251	=251
4.D;	4.D;
4.r	4.r
==	==
*-	*-
!!!ENC: David Huron
!!!YEC: Copyright 1987, David Huron
!!!EEV: 1.0
